flaticon/holiday/champagne.svg

<svg xmlns="http://www.w3.org/2000/svg" width="32" height="32" viewBox="0 0 24 24">
    <path d="M 23.839844 16.8125 L 14.691406 7.667969 C 14.550781 7.527344 14.410156 7.394531 14.265625 7.261719 C 14.25 7.25 14.234375 7.234375 14.21875 7.222656 C 14.082031 7.101562 13.945312 6.984375 13.808594 6.871094 C 13.796875 6.863281 13.789062 6.855469 13.78125 6.847656 L 13.496094 6.617188 L 13.492188 6.621094 C 11.777344 5.316406 9.84375 4.601562 8.195312 4.710938 C 7.882812 4.730469 7.585938 4.625 7.386719 4.425781 L 6.347656 3.390625 C 6.550781 3.007812 6.5 2.523438 6.175781 2.199219 L 6.019531 2.042969 C 5.828125 1.851562 5.574219 1.746094 5.304688 1.746094 C 5.132812 1.746094 4.972656 1.792969 4.828125 1.871094 L 3.234375 0.273438 C 2.867188 -0.0898438 2.230469 -0.0898438 1.867188 0.273438 L 0.289062 1.851562 C 0.109375 2.03125 0.0078125 2.277344 0.0078125 2.53125 C 0.0078125 2.789062 0.109375 3.03125 0.289062 3.214844 L 1.886719 4.8125 C 1.808594 4.957031 1.765625 5.117188 1.765625 5.285156 C 1.765625 5.554688 1.867188 5.808594 2.058594 6 L 2.21875 6.160156 C 2.414062 6.355469 2.671875 6.453125 2.933594 6.453125 C 3.097656 6.453125 3.257812 6.410156 3.40625 6.332031 L 4.441406 7.367188 C 4.644531 7.570312 4.746094 7.863281 4.726562 8.175781 C 4.59375 10.226562 5.726562 12.714844 7.683594 14.675781 L 16.832031 23.820312 C 16.957031 23.945312 17.117188 24 17.308594 24 C 18.507812 24 20.792969 21.785156 21.296875 21.28125 C 24.632812 17.945312 24 16.976562 23.839844 16.8125 Z M 13.558594 7.714844 C 13.753906 7.886719 13.945312 8.0625 14.121094 8.238281 L 14.773438 8.894531 L 12.246094 11.421875 L 12.816406 11.992188 L 15.347656 9.464844 L 16.1875 10.308594 L 13.660156 12.835938 L 14.230469 13.40625 L 16.761719 10.878906 L 17.601562 11.722656 L 15.074219 14.25 L 15.644531 14.820312 L 18.175781 12.292969 L 19.117188 13.234375 L 16.589844 15.765625 L 17.160156 16.335938 L 19.691406 13.808594 L 20.996094 15.113281 L 17.324219 18.789062 L 9.894531 11.359375 L 13.546875 7.707031 C 13.550781 7.710938 13.554688 7.714844 13.558594 7.714844 Z M 0.816406 2.535156 C 0.816406 2.507812 0.820312 2.460938 0.863281 2.421875 L 2.4375 0.84375 C 2.480469 0.804688 2.527344 0.800781 2.550781 0.800781 C 2.574219 0.800781 2.621094 0.804688 2.660156 0.84375 L 4.222656 2.40625 L 2.425781 4.207031 L 0.863281 2.644531 C 0.820312 2.605469 0.816406 2.558594 0.816406 2.535156 Z M 2.628906 5.429688 C 2.578125 5.378906 2.570312 5.316406 2.570312 5.285156 C 2.570312 5.253906 2.578125 5.195312 2.628906 5.144531 L 5.160156 2.613281 C 5.210938 2.5625 5.273438 2.554688 5.304688 2.554688 C 5.335938 2.554688 5.394531 2.5625 5.445312 2.613281 L 5.605469 2.773438 C 5.683594 2.847656 5.683594 2.980469 5.605469 3.058594 L 3.074219 5.589844 C 2.996094 5.664062 2.867188 5.664062 2.789062 5.589844 Z M 20.726562 20.710938 C 18.988281 22.445312 17.699219 23.175781 17.355469 23.203125 L 8.257812 14.105469 C 6.457031 12.304688 5.414062 10.054688 5.535156 8.230469 C 5.570312 7.683594 5.378906 7.164062 5.015625 6.796875 L 4.011719 5.792969 L 5.8125 3.996094 L 6.816406 4.996094 C 7.179688 5.363281 7.699219 5.550781 8.246094 5.515625 C 9.683594 5.417969 11.382812 6.046875 12.914062 7.195312 L 8.753906 11.359375 L 17.324219 19.929688 L 21.566406 15.6875 L 23.21875 17.335938 C 23.195312 17.679688 22.464844 18.972656 20.726562 20.710938 Z M 20.726562 20.710938"/>
    <path d="M8.089844 6.859375C6.972656 6.859375 6.066406 7.765625 6.066406 8.878906 6.066406 9.101562 6.25 9.28125 6.472656 9.28125 6.695312 9.28125 6.875 9.101562 6.875 8.878906 6.875 8.210938 7.417969 7.667969 8.089844 7.667969 8.3125 7.667969 8.492188 7.488281 8.492188 7.261719 8.492188 7.039062 8.3125 6.859375 8.089844 6.859375zM20.613281 6.996094C20.460938 7.019531 20.332031 7.125 20.285156 7.269531 20.238281 7.417969 20.277344 7.578125 20.386719 7.683594L20.929688 8.210938 20.800781 8.957031C20.773438 9.109375 20.835938 9.261719 20.960938 9.351562 21.085938 9.441406 21.25 9.453125 21.386719 9.382812L22.054688 9.03125 22.722656 9.382812C22.78125 9.414062 22.847656 9.429688 22.910156 9.429688 22.996094 9.429688 23.078125 9.402344 23.148438 9.351562 23.273438 9.261719 23.335938 9.109375 23.308594 8.957031L23.183594 8.210938 23.722656 7.683594C23.832031 7.578125 23.871094 7.417969 23.824219 7.269531 23.777344 7.125 23.648438 7.019531 23.5 6.996094L22.75 6.886719 22.417969 6.210938C22.28125 5.933594 21.828125 5.933594 21.691406 6.210938L21.359375 6.886719zM21.683594 7.65625C21.816406 7.636719 21.929688 7.554688 21.988281 7.433594L22.054688 7.300781 22.121094 7.433594C22.179688 7.554688 22.292969 7.636719 22.425781 7.65625L22.574219 7.679688 22.464844 7.78125C22.371094 7.875 22.328125 8.007812 22.351562 8.140625L22.375 8.285156 22.242188 8.21875C22.183594 8.1875 22.121094 8.171875 22.054688 8.171875 21.992188 8.171875 21.925781 8.1875 21.867188 8.21875L21.734375 8.285156 21.761719 8.140625C21.785156 8.007812 21.742188 7.875 21.644531 7.78125L21.539062 7.679688zM16.484375 6.050781C17.265625 6.050781 17.898438 5.417969 17.898438 4.636719 17.898438 3.855469 17.265625 3.222656 16.484375 3.222656 15.707031 3.222656 15.070312 3.855469 15.070312 4.636719 15.070312 5.417969 15.707031 6.050781 16.484375 6.050781zM16.484375 4.03125C16.820312 4.03125 17.089844 4.304688 17.089844 4.636719 17.089844 4.972656 16.820312 5.242188 16.484375 5.242188 16.152344 5.242188 15.878906 4.972656 15.878906 4.636719 15.878906 4.304688 16.152344 4.03125 16.484375 4.03125zM20.121094 3.625C20.902344 3.625 21.535156 2.992188 21.535156 2.210938 21.535156 1.433594 20.902344.796875 20.121094.796875 19.34375.796875 18.707031 1.433594 18.707031 2.210938 18.707031 2.992188 19.34375 3.625 20.121094 3.625zM20.121094 1.605469C20.457031 1.605469 20.726562 1.878906 20.726562 2.210938 20.726562 2.546875 20.457031 2.820312 20.121094 2.820312 19.789062 2.820312 19.515625 2.546875 19.515625 2.210938 19.515625 1.878906 19.789062 1.605469 20.121094 1.605469zM20.324219 5.039062C20.324219 5.375 20.050781 5.648438 19.71875 5.648438 19.382812 5.648438 19.113281 5.375 19.113281 5.039062 19.113281 4.707031 19.382812 4.433594 19.71875 4.433594 20.050781 4.433594 20.324219 4.707031 20.324219 5.039062zM18.304688 7.0625C18.304688 7.394531 18.03125 7.667969 17.699219 7.667969 17.363281 7.667969 17.089844 7.394531 17.089844 7.0625 17.089844 6.726562 17.363281 6.453125 17.699219 6.453125 18.03125 6.453125 18.304688 6.726562 18.304688 7.0625zM18.304688 7.0625"/>
</svg>

<svg xmlns="http://www.w3.org/2000/svg" width="32" height="32" viewBox="0 0 24 24">
    <path d="M23.84 16.813L14.69 7.668c-.14-.14-.28-.273-.425-.406-.016-.012-.032-.028-.047-.04a16.4 16.4 0 0 0-.438-.374l-.285-.23-.004.003c-1.715-1.305-3.648-2.02-5.297-1.91a1.05 1.05 0 0 1-.808-.285L6.347 3.39a1.01 1.01 0 0 0-.171-1.192l-.156-.156a.996.996 0 0 0-1.191-.172L3.233.273a.994.994 0 0 0-1.367 0L.29 1.852a.964.964 0 0 0 0 1.363l1.598 1.598A1.001 1.001 0 0 0 2.059 6l.16.16a1.005 1.005 0 0 0 1.187.171l1.035 1.035c.204.203.305.496.286.809-.133 2.05 1 4.539 2.957 6.5l9.148 9.144c.125.125.285.18.477.18 1.199 0 3.484-2.215 3.988-2.719 3.336-3.336 2.703-4.304 2.543-4.468zM13.559 7.714c.195.172.386.348.562.523l.652.657-2.527 2.527.57.57 2.532-2.527.84.844-2.528 2.527.57.57 2.532-2.527.84.844-2.528 2.527.57.57 2.532-2.527.941.941-2.527 2.532.57.57 2.531-2.527 1.305 1.304-3.672 3.676-7.43-7.43 3.653-3.652c.004.004.008.008.012.008zM.816 2.535c0-.027.004-.074.047-.113L2.438.844A.165.165 0 0 1 2.55.8c.023 0 .07.004.11.043l1.562 1.562-1.797 1.801L.863 2.645a.143.143 0 0 1-.047-.11zM2.63 5.43a.206.206 0 0 1-.059-.145c0-.031.008-.09.059-.14L5.16 2.613a.206.206 0 0 1 .145-.058c.03 0 .09.007.14.058l.16.16a.203.203 0 0 1 0 .286l-2.53 2.53a.21.21 0 0 1-.286 0zm18.098 15.28c-1.739 1.735-3.028 2.466-3.372 2.493l-9.097-9.098c-1.801-1.8-2.844-4.05-2.723-5.875a1.86 1.86 0 0 0-.52-1.433L4.013 5.793l1.8-1.797 1.004 1c.364.367.883.555 1.43.52 1.438-.098 3.137.53 4.668 1.68l-4.16 4.163 8.57 8.57 4.242-4.241 1.653 1.648c-.024.344-.754 1.637-2.492 3.375zm0 0"/>
    <path d="M8.09 6.86a2.023 2.023 0 0 0-2.024 2.019.405.405 0 0 0 .809 0c0-.668.543-1.211 1.215-1.211.223 0 .402-.18.402-.406a.402.402 0 0 0-.402-.403zm0 0M20.613 6.996a.409.409 0 0 0-.328.274.404.404 0 0 0 .102.414l.543.527-.13.746a.398.398 0 0 0 .16.395c.126.09.29.101.427.03l.668-.35.668.35a.404.404 0 0 0 .586-.425l-.125-.746.539-.527a.404.404 0 0 0-.223-.688l-.75-.11-.332-.675c-.137-.277-.59-.277-.727 0l-.332.676zm1.07.66a.401.401 0 0 0 .305-.222l.067-.133.066.133a.401.401 0 0 0 .305.222l.148.024-.11.101a.406.406 0 0 0-.112.36l.023.144-.133-.066a.393.393 0 0 0-.375 0l-.133.066.028-.144a.398.398 0 0 0-.117-.36l-.106-.101zm0 0M16.484 6.05a1.414 1.414 0 1 0 .001-2.827 1.414 1.414 0 0 0 0 2.828zm0-2.019a.606.606 0 1 1 0 1.212.606.606 0 0 1 0-1.212zm0 0M20.121 3.625a1.414 1.414 0 1 0 0-2.827 1.414 1.414 0 0 0 0 2.827zm0-2.02a.607.607 0 1 1 0 1.215.609.609 0 0 1 0-1.215zm0 0M20.324 5.04a.61.61 0 0 1-.605.608.607.607 0 0 1 0-1.214c.332 0 .605.273.605.605zm0 0M18.305 7.063a.609.609 0 0 1-1.215 0 .61.61 0 0 1 .61-.61.61.61 0 0 1 .605.61zm0 0"/>
</svg>
